X:1
T:Scarborough Fair
C:Traditional English
M:3/4
L:1/4
Q:100
K:Am
%% Dorian mode (natural minor with raised 6th) - advanced scale lesson
A | A A B | c B A | E E E | E2 A |
A B c A | A ^F E | D E ^F | E3 |
A A B | c d e | e d c | B2 A |
B A ^F | E D E | E E E | A3 |]
